week1assignment/img/SVG/logo_premierleague.svg

<svg fill="none" height="139" viewBox="0 0 328 139" width="328" xmlns="http://www.w3.org/2000/svg" xmlns:xlink="http://www.w3.org/1999/xlink"><clipPath id="a"><path d="m.799805.88501h327v138h-327z"/></clipPath><g clip-path="url(#a)" fill="#f8f8ff" stroke="#f8f8ff" stroke-width=".22"><path clip-rule="evenodd" d="m29.6867 27.215c15.5456-8.6106 31.4901-9.7246 46.1921-5.7076.6343-5.0328.9875-9.4233 3.7735-15.47827-3.6951 2.69329-6.0625 5.74047-8.7766 9.03007l-.9091-14.03002-11.7916 13.13222-8.0769-13.204308-4.9639 14.763908-14.4338-10.20956 2.4264 14.20036c-3.3158-2.7588-7.0109-5.5111-10.7191-7.0445 2.8515 3.7615 5.6244 8.958 7.2725 14.5477z" fill-rule="evenodd" stroke-linejoin="round"/><path clip-rule="evenodd" d="m89.8352 33.1652c-4.1137-3.4207-8.2469-6.4088-17.3245-8.65.8241 1.8021 1.5042 4.0825 1.4912 6.4613-2.3414-2.5033-5.1863-5.6028-8.659-7.4508-11.4712-1.5072-23.2628 1.3761-32.5038 6.0419 3.9175.4587 7.0043 3.5124 8.0442 6.8807-11.0657-7.7326-17.416 3.4141-11.0134 14.5215-6.8866-3.2897-7.207-11.304-5.1077-16.5726-5.1666 3.9318-13.0669 11.5136-17.99154 21.7822l6.31764.8912c-7.62564 9.0104-11.47116 21.9723-12.216718 29.5934l10.280918-3.3354c-3.25696 11.8085-.6475 30.1964 3.5054 36.9064 6.4157-5.059 11.5627-11.389 16.8863-19.416 3.3746 10.681 2.7664 21.801.1439 33.132 14.9962 8.505 33.6548 5.059 45.8846-4.181.5232 2.188.8764 3.211 1.8966 7.968 14.8393-10.301 19.8751-22.903 21.3137-35.117l4.827 5.347c6.461-20.9108 2.616-37.9028-8.8686-54.3639l-.4774 3.84c-1.3341-1.6775-3.5185-3.7155-4.5387-4.9934-.157-.2031-.1178-.3145-.2224-.4783.5428-.3342 1.55-.8061 1.8116-1.5203-.1112-.9961-1.2622-3.5714-2.119-4.0498-2.1255.1966-3.8324 2.0642-3.8455 2.7457-1.1053-1.0485-2.1517-2.2018-5.3693-3.3945 1.4453 1.4679 2.8318 3.7156 3.8586 5.7143 2.1189 1.5596 5.6701 4.5478 8.3123 7.2673l-.5101.5177c-2.9038-2.2805-10.6733-2.0839-14.9505.0786-2.0797-2.4967-4.4929-5.2752-7.8676-8.3354-.824-1.4089-.896-3.9253 1.72-6.1009-2.8906.2556-4.094 1.5072-5.4543 2.6671-2.0209-1.5269-4.6696-3.1193-8.9598-4.3381-3.3616.6815-7.4164 2.844-8.9794 4.7313 3.924 2.1035 5.1208 2.7391 7.5013 2.903 3.4924.249 6.5335-.5505 8.7702.8846 2.7729 2.4705 7.9592 7.0838 8.6982 9.1873-4.4865-2.5753-11.203-1.2123-18.6783-1.6055-7.0632-.8453-10.9545-6.0812-11.0264-10.3013l-5.0227-.7929c2.8253-3.8859 6.3961-5.6094 9.0383-6.5399l-2.7534-2.287c4.4145-3.8008 11.2815-6.8545 18.2662-7.4574 4.8462 2.3984 8.9925 5.0262 11.8374 7.3787 1.2884-2.1559 1.4715-4.4953 1.635-6.0287 5.5198 2.5491 11.687 6.9134 16.1996 11.5071-1.8116-3.3028-3.1784-7.1166-3.7801-11.6382zm-21.5755 51.782c-2.1189-4.0695-4.1921-8.6828-6.625-12.5556 4.7023-3.3748 9.156-6.8741 16.7751-8.8269 1.6089 1.3368 3.9829 2.9488 7.3641 4.1808v8.0471c-4.8004 3.2896-9.5942 8.6565-17.5142 9.1611zm15.9642-1.481 5.8075-.0197c.981.924 3.0346 4.0694 3.1784 6.5137-.4578 3.4731-3.1457 9.8558-7.8676 12.2938.1504-2.9557-.1896-6.7827-.7848-8.9124-2.6945 3.0406-7.0828 4.4101-9.3456 4.9147-.9418-2.5098-2.4852-5.2883-3.9829-7.5556 4.0483-.8388 9.1625-3.8139 12.995-7.2345zm11.3338-19.587c3.8259 8.1192 3.0019 15.9042.3139 19.895-1.308-2.9948-3.8193-5.996-5.9448-7.8833l.085-7.8833c2.4198-1.304 4.0679-2.6736 5.5394-4.1284z" fill-rule="evenodd" stroke-linejoin="round"/><path d="m136.027 55.1702v15.1833h-8.698v-46.1201h11.733c7.743.0983 10.268 1.0157 13.616 3.2568 3.368 2.2215 5.736 7.1035 5.736 11.8414 0 10.5634-6.501 15.9238-18.685 15.8451h-3.702zm0-8.2306h4.395c4.859.0393 8.914-1.7955 8.947-7.3394-.066-3.401-2.021-6.6382-8.038-6.992h-5.304z" stroke-miterlimit="1.73"/><path d="m179.538 47.9095c-5.291-1.4679-9.66 1.2582-10.032 6.3499v16.1007h-8.064v-30.2094h7.076l.942 4.5937c2.184-4.0367 5.01-5.5963 10.085-4.6068v7.7784z" stroke-miterlimit="1.73"/><path d="m211.028 57.7849h-22.341c0 3.1847 3.369 6.3761 7.646 6.363 4.807-.1639 6.664-1.9856 8.351-3.6697l4.814 5.0458c-1.897 1.8086-5.513 5.2162-12.472 5.7077-10.392-.1114-16.664-6.9921-16.755-15.6683.255-9.6198 7.207-16.1532 16.101-16.2777 5.69.0393 11.177 3.46 13.472 8.8466 1.321 3.0799 1.596 6.802 1.184 9.6591zm-22.354-5.6094h14.63c-.654-2.9292-3.374-5.9239-7.305-5.8584-3.989.0655-6.886 2.8768-7.325 5.8584z" stroke-linejoin="round"/><g stroke-miterlimit="1.73"><path d="m250.922 70.3273v-17.8963c-.216-3.9383-2.976-5.6355-5.134-5.4848-2.74.1966-4.885 2.287-5.055 5.6487v17.7259h-7.92v-19.1348c-.471-2.8178-3.015-4.3643-5.121-4.1874-2.505.2162-4.676 1.6579-4.898 4.5543v18.7679h-8.09v-30.2815h7.318l.804 3.8532c2.034-3.1455 4.153-4.6461 7.561-4.6789 4.78-.0393 6.873 2.3656 8.829 4.9017 2.498-3.5321 4.702-4.7117 9.43-4.9017 6.913.3408 10.49 5.8912 10.314 12.0707v19.0365h-8.031z"/><path d="m263.315 40.1376h8.326v30.1963h-8.326z"/><path d="m127.192 75.36h9.13v36.704h19.312v8.335h-28.442z"/><path d="m216.986 120.405-.909-3.748c-2.864 3.46-6.246 4.745-10.418 4.568-3.787-.164-7.652-2.124-10.484-5.708-2.387-2.936-3.584-6.501-3.584-10.701 0-4.201 1.962-8.2635 5.383-11.5007 2.675-2.346 6.402-3.7287 10.019-3.7024 3.466.0262 6.422 1.0157 9.006 4.3184l.824-3.8925h7.462v30.3662h-7.292zm-8.633-23.2103c-4.643.308-7.763 3.1393-8.037 8.0863-.007 2.353.765 4.686 2.655 6.284 1.7 1.311 3.702 1.986 5.677 1.888 4.427-.308 7.37-3.735 7.423-7.838.058-4.665-2.806-8.1385-7.718-8.4203z"/><path d="m263.963 90.0912h8.561v14.6398c0 2.011-.196 4.521 1.131 6.238 1.347 1.645 3.087 2.366 4.591 2.412 2.387.078 3.754-.643 4.761-1.475 2.054-1.599 2.283-4.646 2.296-6.972v-14.8428h8.391v17.6148c0 3.899-1.576 7.123-4.382 9.921-2.727 2.418-6.442 3.781-11.085 3.571-4.637-.209-7.567-1.54-10.17-3.964-2.178-2.025-4.094-5.524-4.094-10.236z"/><path d="m267.638 25.5899c1.432 0 2.649.5111 3.649 1.54 1.027 1.0026 1.537 2.2214 1.537 3.6565 0 1.4352-.51 2.6671-1.537 3.6959-1 1.0027-2.217 1.5072-3.649 1.5072s-2.662-.5045-3.688-1.5072c-1.001-1.0288-1.505-2.2607-1.505-3.6959 0-1.4351.504-2.6539 1.505-3.6565 1.026-1.0289 2.256-1.54 3.688-1.54z"/><path d="m327.688 47.9095c-5.29-1.4679-9.659 1.2582-10.032 6.3499v16.1007h-8.064v-30.2094h7.077l.941 4.5937c2.185-4.0367 5.01-5.5963 10.085-4.6068v7.7784z"/></g><path d="m305.78 57.7849h-22.341c0 3.1847 3.368 6.3761 7.645 6.363 4.807-.1639 6.664-1.9856 8.352-3.6697l4.813 5.0458c-1.896 1.8086-5.513 5.2162-12.472 5.7077-10.392-.1114-16.663-6.9921-16.755-15.6683.255-9.6198 7.207-16.1532 16.101-16.2777 5.69.0393 11.177 3.46 13.473 8.8466 1.321 3.0799 1.596 6.802 1.184 9.6591zm-22.354-5.6094h14.63c-.654-2.9292-3.375-5.9239-7.305-5.8584-3.99.0655-6.887 2.8768-7.325 5.8584z" stroke-linejoin="round"/><path d="m233.336 123.485c2.989 2.654 5.31 3.644 7.161 3.945 5.88.97 12.25-1.258 10.889-9.692-1.602 1.652-3.126 2.556-4.767 3.034-7.292 1.442-12.348-1.166-15.677-5.255-2.387-2.936-3.584-6.501-3.584-10.701 0-4.201 1.962-8.2635 5.383-11.5007 2.675-2.346 6.402-3.7287 10.019-3.7024 3.466.0262 6.422 1.0157 9.006 4.3184l.824-3.8925h7.462v28.0272c.32 13.381-9.522 17.497-17.436 17.431-4.892-.046-9.934-2.044-13.917-5.485l4.637-6.52zm10.791-26.2903c-4.643.308-7.763 3.1393-8.038 8.0863-.006 2.353.765 4.686 2.656 6.284 1.7 1.311 3.701 1.986 5.676 1.888 4.428-.308 7.371-3.735 7.423-7.838.059-4.665-2.806-8.1385-7.717-8.4203z" stroke-miterlimit="1.73"/><path d="m327.551 107.817h-22.341c0 3.185 3.369 6.376 7.646 6.363 4.807-.164 6.664-1.985 8.351-3.67l4.814 5.046c-1.897 1.809-5.514 5.216-12.472 5.708-10.392-.111-16.664-6.992-16.756-15.668.256-9.6201 7.208-16.1535 16.102-16.278 5.69.0393 11.177 3.46 13.472 8.8466 1.321 3.0794 1.596 6.8024 1.184 9.6594zm-22.354-5.609h14.63c-.654-2.9294-3.374-5.9242-7.305-5.8586-3.989.0655-6.886 2.8768-7.325 5.8586z" stroke-linejoin="round"/><path d="m188.327 107.817h-22.34c0 3.185 3.368 6.376 7.645 6.363 4.807-.164 6.664-1.985 8.352-3.67l4.813 5.046c-1.897 1.809-5.513 5.216-12.472 5.708-10.392-.111-16.664-6.992-16.755-15.668.255-9.6201 7.207-16.1535 16.101-16.278 5.69.0393 11.177 3.46 13.473 8.8466 1.321 3.0794 1.595 6.8024 1.183 9.6594zm-22.353-5.609h14.63c-.654-2.9294-3.375-5.9242-7.305-5.8586-3.99.0655-6.887 2.8768-7.325 5.8586z" stroke-linejoin="round"/></g></svg>

<svg width="328" height="139" viewBox="0 0 328 139" fill="none" xmlns="http://www.w3.org/2000/svg">
<g clip-path="url(#clip0_322_270)">
<path fill-rule="evenodd" clip-rule="evenodd" d="M29.6867 27.215C45.2323 18.6044 61.1768 17.4904 75.8788 21.5074C76.5131 16.4746 76.8663 12.0841 79.6523 6.02913C75.9572 8.72242 73.5898 11.7696 70.8757 15.0592L69.9666 1.02918L58.175 14.1614L50.0981 0.957092L45.1342 15.721L30.7004 5.51144L33.1268 19.7118C29.811 16.953 26.1159 14.2007 22.4077 12.6673C25.2592 16.4288 28.0321 21.6253 29.6802 27.215H29.6867Z" fill="#F8F8FF" stroke="#F8F8FF" stroke-width="0.22" stroke-linejoin="round"/>
<path fill-rule="evenodd" clip-rule="evenodd" d="M89.8352 33.1652C85.7215 29.7445 81.5883 26.7564 72.5107 24.5152C73.3348 26.3173 74.0149 28.5977 74.0019 30.9765C71.6605 28.4732 68.8156 25.3737 65.3429 23.5257C53.8717 22.0185 42.0801 24.9018 32.8391 29.5676C36.7566 30.0263 39.8434 33.08 40.8833 36.4483C29.8176 28.7157 23.4673 39.8624 29.8699 50.9698C22.9833 47.6801 22.6629 39.6658 24.7622 34.3972C19.5956 38.329 11.6953 45.9108 6.77066 56.1794L13.0883 57.0706C5.46266 66.081 1.61714 79.0429 0.871582 86.664L11.1525 83.3286C7.89554 95.1371 10.505 113.525 14.6579 120.235C21.0736 115.176 26.2206 108.846 31.5442 100.819C34.9188 111.5 34.3106 122.62 31.6881 133.951C46.6843 142.456 65.3429 139.01 77.5727 129.77C78.0959 131.958 78.4491 132.981 79.4693 137.738C94.3086 127.437 99.3444 114.835 100.783 102.621L105.61 107.968C112.071 87.0572 108.226 70.0652 96.7414 53.6041L96.264 57.4441C94.9299 55.7666 92.7455 53.7286 91.7253 52.4507C91.5683 52.2476 91.6075 52.1362 91.5029 51.9724C92.0457 51.6382 93.0529 51.1663 93.3145 50.4521C93.2033 49.456 92.0523 46.8807 91.1955 46.4023C89.07 46.5989 87.3631 48.4665 87.35 49.148C86.2447 48.0995 85.1983 46.9462 81.9807 45.7535C83.426 47.2214 84.8125 49.4691 85.8393 51.4678C87.9582 53.0274 91.5094 56.0156 94.1516 58.7351L93.6415 59.2528C90.7377 56.9723 82.9682 57.1689 78.691 59.3314C76.6113 56.8347 74.1981 54.0562 70.8234 50.996C69.9994 49.5871 69.9274 47.0707 72.5434 44.8951C69.6528 45.1507 68.4494 46.4023 67.0891 47.5622C65.0682 46.0353 62.4195 44.4429 58.1293 43.2241C54.7677 43.9056 50.7129 46.0681 49.1499 47.9554C53.0739 50.0589 54.2707 50.6945 56.6512 50.8584C60.1436 51.1074 63.1847 50.3079 65.4214 51.743C68.1943 54.2135 73.3806 58.8268 74.1196 60.9303C69.6331 58.355 62.9166 59.718 55.4413 59.3248C48.3781 58.4795 44.4868 53.2436 44.4149 49.0235L39.3922 48.2306C42.2175 44.3447 45.7883 42.6212 48.4305 41.6907L45.6771 39.4037C50.0916 35.6029 56.9586 32.5492 63.9433 31.9463C68.7895 34.3447 72.9358 36.9725 75.7807 39.325C77.0691 37.1691 77.2522 34.8297 77.4157 33.2963C82.9355 35.8454 89.1027 40.2097 93.6153 44.8034C91.8037 41.5006 90.4369 37.6868 89.8352 33.1652ZM68.2597 84.9472C66.1408 80.8777 64.0676 76.2644 61.6347 72.3916C66.337 69.0168 70.7907 65.5175 78.4098 63.5647C80.0187 64.9015 82.3927 66.5135 85.7739 67.7455V75.7926C80.9735 79.0822 76.1797 84.4491 68.2597 84.9537V84.9472ZM84.2239 83.4662L90.0314 83.4465C91.0124 84.3705 93.066 87.5159 93.2098 89.9602C92.752 93.4333 90.0641 99.816 85.3422 102.254C85.4926 99.2983 85.1526 95.4713 84.5574 93.3416C81.8629 96.3822 77.4746 97.7517 75.2118 98.2563C74.27 95.7465 72.7266 92.968 71.2289 90.7007C75.2772 89.8619 80.3914 86.8868 84.2239 83.4662ZM95.5577 63.8792C99.3836 71.9984 98.5596 79.7834 95.8716 83.7742C94.5636 80.7794 92.0523 77.7782 89.9268 75.8909L90.0118 68.0076C92.4316 66.7036 94.0797 65.334 95.5512 63.8792H95.5577Z" fill="#F8F8FF" stroke="#F8F8FF" stroke-width="0.22" stroke-linejoin="round"/>
<path d="M136.027 55.1702V70.3535H127.329V24.2334H139.062C146.805 24.3317 149.33 25.2491 152.678 27.4902C156.046 29.7117 158.414 34.5937 158.414 39.3316C158.414 49.895 151.913 55.2554 139.729 55.1767H136.027V55.1702ZM136.027 46.9396H140.422C145.281 46.9789 149.336 45.1441 149.369 39.6002C149.303 36.1992 147.348 32.962 141.331 32.6082H136.027V46.9396Z" fill="#F8F8FF" stroke="#F8F8FF" stroke-width="0.22" stroke-miterlimit="1.73"/>
<path d="M179.538 47.9095C174.247 46.4416 169.878 49.1677 169.506 54.2594V70.3601H161.442V40.1507H168.518L169.46 44.7444C171.644 40.7077 174.47 39.1481 179.545 40.1376V47.916L179.538 47.9095Z" fill="#F8F8FF" stroke="#F8F8FF" stroke-width="0.22" stroke-miterlimit="1.73"/>
<path d="M211.028 57.7849H188.687C188.687 60.9696 192.056 64.161 196.333 64.1479C201.14 63.984 202.997 62.1623 204.684 60.4782L209.498 65.524C207.601 67.3326 203.985 70.7402 197.026 71.2317C186.634 71.1203 180.362 64.2396 180.271 55.5634C180.526 45.9436 187.478 39.4102 196.372 39.2857C202.062 39.325 207.549 42.7457 209.844 48.1323C211.165 51.2122 211.44 54.9343 211.028 57.7914V57.7849ZM188.674 52.1755H203.304C202.65 49.2463 199.93 46.2516 195.999 46.3171C192.01 46.3826 189.113 49.1939 188.674 52.1755Z" fill="#F8F8FF" stroke="#F8F8FF" stroke-width="0.22" stroke-linejoin="round"/>
<path d="M250.922 70.3273V52.431C250.706 48.4927 247.946 46.7955 245.788 46.9462C243.048 47.1428 240.903 49.2332 240.733 52.5949V70.3208H232.813V51.186C232.342 48.3682 229.798 46.8217 227.692 46.9986C225.187 47.2148 223.016 48.6565 222.794 51.5529V70.3208H214.704V40.0393H222.022L222.826 43.8925C224.86 40.747 226.979 39.2464 230.387 39.2136C235.167 39.1743 237.26 41.5792 239.216 44.1153C241.714 40.5832 243.918 39.4036 248.646 39.2136C255.559 39.5544 259.136 45.1048 258.96 51.2843V70.3208H250.929L250.922 70.3273Z" fill="#F8F8FF" stroke="#F8F8FF" stroke-width="0.22" stroke-miterlimit="1.73"/>
<path d="M263.315 40.1376H271.641V70.3339H263.315V40.1376Z" fill="#F8F8FF" stroke="#F8F8FF" stroke-width="0.22" stroke-miterlimit="1.73"/>
<path d="M127.192 75.36H136.322V112.064H155.634V120.399H127.192V75.36Z" fill="#F8F8FF" stroke="#F8F8FF" stroke-width="0.22" stroke-miterlimit="1.73"/>
<path d="M216.986 120.405L216.077 116.657C213.213 120.117 209.831 121.402 205.659 121.225C201.872 121.061 198.007 119.101 195.175 115.517C192.788 112.581 191.591 109.016 191.591 104.816C191.591 100.615 193.553 96.5525 196.974 93.3153C199.649 90.9693 203.376 89.5866 206.993 89.6129C210.459 89.6391 213.415 90.6286 215.999 93.9313L216.823 90.0388H224.285V120.405H216.993H216.986ZM208.353 97.1947C203.71 97.5027 200.59 100.334 200.316 105.281C200.309 107.634 201.081 109.967 202.971 111.565C204.671 112.876 206.673 113.551 208.648 113.453C213.075 113.145 216.018 109.718 216.071 105.615C216.129 100.95 213.265 97.4765 208.353 97.1947Z" fill="#F8F8FF" stroke="#F8F8FF" stroke-width="0.22" stroke-miterlimit="1.73"/>
<path d="M263.963 90.0912H272.524V104.731C272.524 106.742 272.328 109.252 273.655 110.969C275.002 112.614 276.742 113.335 278.246 113.381C280.633 113.459 282 112.738 283.007 111.906C285.061 110.307 285.29 107.26 285.303 104.934V90.0912H293.694V107.706C293.694 111.605 292.118 114.829 289.312 117.627C286.585 120.045 282.87 121.408 278.227 121.198C273.59 120.989 270.66 119.658 268.057 117.234C265.879 115.209 263.963 111.71 263.963 106.998V90.0912Z" fill="#F8F8FF" stroke="#F8F8FF" stroke-width="0.22" stroke-miterlimit="1.73"/>
<path d="M267.638 25.5899C269.07 25.5899 270.287 26.101 271.287 27.1299C272.314 28.1325 272.824 29.3513 272.824 30.7864C272.824 32.2216 272.314 33.4535 271.287 34.4823C270.287 35.485 269.07 35.9895 267.638 35.9895C266.206 35.9895 264.976 35.485 263.95 34.4823C262.949 33.4535 262.445 32.2216 262.445 30.7864C262.445 29.3513 262.949 28.1325 263.95 27.1299C264.976 26.101 266.206 25.5899 267.638 25.5899Z" fill="#F8F8FF" stroke="#F8F8FF" stroke-width="0.22" stroke-miterlimit="1.73"/>
<path d="M327.688 47.9095C322.398 46.4416 318.029 49.1677 317.656 54.2594V70.3601H309.592V40.1507H316.669L317.61 44.7444C319.795 40.7077 322.62 39.1481 327.695 40.1376V47.916L327.688 47.9095Z" fill="#F8F8FF" stroke="#F8F8FF" stroke-width="0.22" stroke-miterlimit="1.73"/>
<path d="M305.78 57.7849H283.439C283.439 60.9696 286.807 64.161 291.084 64.1479C295.891 63.984 297.748 62.1623 299.436 60.4782L304.249 65.524C302.353 67.3326 298.736 70.7402 291.777 71.2317C281.385 71.1203 275.114 64.2396 275.022 55.5634C275.277 45.9436 282.229 39.4102 291.123 39.2857C296.813 39.325 302.3 42.7457 304.596 48.1323C305.917 51.2122 306.192 54.9343 305.78 57.7914V57.7849ZM283.426 52.1755H298.056C297.402 49.2463 294.681 46.2516 290.751 46.3171C286.761 46.3826 283.864 49.1939 283.426 52.1755Z" fill="#F8F8FF" stroke="#F8F8FF" stroke-width="0.22" stroke-linejoin="round"/>
<path d="M233.336 123.485C236.325 126.139 238.646 127.129 240.497 127.43C246.377 128.4 252.747 126.172 251.386 117.738C249.784 119.39 248.26 120.294 246.619 120.772C239.327 122.214 234.271 119.606 230.942 115.517C228.555 112.581 227.358 109.016 227.358 104.816C227.358 100.615 229.32 96.5525 232.741 93.3153C235.416 90.9693 239.143 89.5866 242.76 89.6129C246.226 89.6391 249.182 90.6286 251.766 93.9313L252.59 90.0388H260.052V118.066C260.372 131.447 250.53 135.563 242.616 135.497C237.724 135.451 232.682 133.453 228.699 130.012L233.336 123.492V123.485ZM244.127 97.1947C239.484 97.5027 236.364 100.334 236.089 105.281C236.083 107.634 236.854 109.967 238.745 111.565C240.445 112.876 242.446 113.551 244.421 113.453C248.849 113.145 251.792 109.718 251.844 105.615C251.903 100.95 249.038 97.4765 244.127 97.1947Z" fill="#F8F8FF" stroke="#F8F8FF" stroke-width="0.22" stroke-miterlimit="1.73"/>
<path d="M327.551 107.817H305.21C305.21 111.002 308.579 114.193 312.856 114.18C317.663 114.016 319.52 112.195 321.207 110.51L326.021 115.556C324.124 117.365 320.507 120.772 313.549 121.264C303.157 121.153 296.885 114.272 296.793 105.596C297.049 95.9759 304.001 89.4425 312.895 89.318C318.585 89.3573 324.072 92.778 326.367 98.1646C327.688 101.244 327.963 104.967 327.551 107.824V107.817ZM305.197 102.208H319.827C319.173 99.2786 316.453 96.2838 312.522 96.3494C308.533 96.4149 305.636 99.2262 305.197 102.208Z" fill="#F8F8FF" stroke="#F8F8FF" stroke-width="0.22" stroke-linejoin="round"/>
<path d="M188.327 107.817H165.987C165.987 111.002 169.355 114.193 173.632 114.18C178.439 114.016 180.296 112.195 181.984 110.51L186.797 115.556C184.9 117.365 181.284 120.772 174.325 121.264C163.933 121.153 157.661 114.272 157.57 105.596C157.825 95.9759 164.777 89.4425 173.671 89.318C179.361 89.3573 184.848 92.778 187.144 98.1646C188.465 101.244 188.739 104.967 188.327 107.824V107.817ZM165.974 102.208H180.604C179.95 99.2786 177.229 96.2838 173.299 96.3494C169.309 96.4149 166.412 99.2262 165.974 102.208Z" fill="#F8F8FF" stroke="#F8F8FF" stroke-width="0.22" stroke-linejoin="round"/>
</g>
<defs>
<clipPath id="clip0_322_270">
<rect width="327" height="138" fill="white" transform="translate(0.799805 0.88501)"/>
</clipPath>
</defs>
</svg>
